X:643
T:O Mother What Shall I Do
S:Kate Dunlay
Z:Nigel Gatherer
L:1/4
M:3/4
K:D
D>ED | FAB | d>ef | d>BA | d B/d/A/d/ | B2b | 
a b/a/g/f/ | e2d | D>ED | FAB | d/c/d/e/f/e/ | 
d>BA | B>d/B/d/ | AFA | B/c/ d F/G/ | E2D :|
f/g/ a a/b/ | afa | bag/a/ | f>ed | f/a/ bb | 
b2a | d/c/d/e/f/g/ | e2d | f/e/d/e/f/g/ | afa | 
bag | a/g/f/e/ d | B<d/B/d/ | A>B/A/B/ | G>A/F/G/ | E2 D :|]
<end>
<start>
